src/assets/logo.svg

<svg width="200" height="200" viewBox="0 0 300 300" fill="none" xmlns="http://www.w3.org/2000/svg">
<circle cx="100" cy="100" r="100" fill="#E2E2E2"  />
<circle cx="100" cy="100" r="75" fill="black"  />
<path d="M73.224 123.896C69.5547 123.896 66.0133 123.448 62.6 122.552C59.2293 121.613 56.4773 120.419 54.344 118.968L58.504 109.624C60.5093 110.904 62.8133 111.971 65.416 112.824C68.0613 113.635 70.6853 114.04 73.288 114.04C75.0373 114.04 76.4453 113.891 77.512 113.592C78.5787 113.251 79.3467 112.824 79.816 112.312C80.328 111.757 80.584 111.117 80.584 110.392C80.584 109.368 80.1147 108.557 79.176 107.96C78.2373 107.363 77.0213 106.872 75.528 106.488C74.0347 106.104 72.3707 105.72 70.536 105.336C68.744 104.952 66.9307 104.461 65.096 103.864C63.304 103.267 61.6613 102.499 60.168 101.56C58.6747 100.579 57.4587 99.32 56.52 97.784C55.5813 96.2053 55.112 94.2213 55.112 91.832C55.112 89.144 55.8373 86.712 57.288 84.536C58.7813 82.36 61 80.6107 63.944 79.288C66.888 77.9653 70.5573 77.304 74.952 77.304C77.896 77.304 80.776 77.6453 83.592 78.328C86.4507 78.968 88.9893 79.928 91.208 81.208L87.304 90.616C85.1707 89.464 83.0587 88.6107 80.968 88.056C78.8773 87.4587 76.8507 87.16 74.888 87.16C73.1387 87.16 71.7307 87.352 70.664 87.736C69.5973 88.0773 68.8293 88.5467 68.36 89.144C67.8907 89.7413 67.656 90.424 67.656 91.192C67.656 92.1733 68.104 92.9627 69 93.56C69.9387 94.1147 71.1547 94.584 72.648 94.968C74.184 95.3093 75.848 95.672 77.64 96.056C79.4747 96.44 81.288 96.9307 83.08 97.528C84.9147 98.0827 86.5787 98.8507 88.072 99.832C89.5653 100.771 90.76 102.029 91.656 103.608C92.5947 105.144 93.064 107.085 93.064 109.432C93.064 112.035 92.3173 114.445 90.824 116.664C89.3733 118.84 87.176 120.589 84.232 121.912C81.3307 123.235 77.6613 123.896 73.224 123.896ZM128.87 78.2H141.542V123H128.87V78.2ZM111.59 123H98.9175V78.2H111.59V123ZM129.766 105.528H110.694V95.032H129.766V105.528Z" fill="#E2E2E2"/>
</svg>

<svg width="200" height="200" viewBox="0 0 300 300" fill="none" xmlns="http://www.w3.org/2000/svg"><circle cx="100" cy="100" r="100" fill="#E2E2E2"/><circle cx="100" cy="100" r="75" fill="#000"/><path d="M73.224 123.896c-3.67 0-7.21-.448-10.624-1.344-3.37-.939-6.123-2.133-8.256-3.584l4.16-9.344c2.005 1.28 4.31 2.347 6.912 3.2 2.645.811 5.27 1.216 7.872 1.216 1.75 0 3.157-.149 4.224-.448 1.067-.341 1.835-.768 2.304-1.28.512-.555.768-1.195.768-1.92 0-1.024-.47-1.835-1.408-2.432-.939-.597-2.155-1.088-3.648-1.472a113.713 113.713 0 00-4.992-1.152 54.471 54.471 0 01-5.44-1.472 22.684 22.684 0 01-4.928-2.304 11.86 11.86 0 01-3.648-3.776c-.939-1.579-1.408-3.563-1.408-5.952 0-2.688.725-5.12 2.176-7.296 1.493-2.176 3.712-3.925 6.656-5.248 2.944-1.323 6.613-1.984 11.008-1.984 2.944 0 5.824.341 8.64 1.024 2.859.64 5.397 1.6 7.616 2.88l-3.904 9.408c-2.133-1.152-4.245-2.005-6.336-2.56-2.09-.597-4.117-.896-6.08-.896-1.75 0-3.157.192-4.224.576-1.067.341-1.835.81-2.304 1.408a3.225 3.225 0 00-.704 2.048c0 .981.448 1.77 1.344 2.368.939.555 2.155 1.024 3.648 1.408 1.536.341 3.2.704 4.992 1.088 1.835.384 3.648.875 5.44 1.472 1.835.555 3.499 1.323 4.992 2.304 1.493.939 2.688 2.197 3.584 3.776.939 1.536 1.408 3.477 1.408 5.824 0 2.603-.747 5.013-2.24 7.232-1.45 2.176-3.648 3.925-6.592 5.248-2.901 1.323-6.57 1.984-11.008 1.984zM128.87 78.2h12.672V123H128.87V78.2zM111.59 123H98.918V78.2h12.672V123zm18.176-17.472h-19.072V95.032h19.072v10.496z" fill="#E2E2E2"/></svg>
